libs/icons/src/svg/broadcast.svg

<svg width="16" height="16" viewBox="0 0 16 16" fill="none" xmlns="http://www.w3.org/2000/svg">
<path fill-rule="evenodd" clip-rule="evenodd" d="M11.0565 1.45917C11.2303 1.58447 11.3333 1.7857 11.3333 2V12.6667C11.3333 12.881 11.2303 13.0822 11.0565 13.2075C10.8826 13.3328 10.6591 13.3669 10.4558 13.2991L7.33333 12.2583V14C7.33333 14.2092 7.23514 14.4062 7.06813 14.5322C6.90112 14.6582 6.68466 14.6985 6.48352 14.641L1.81685 13.3077C1.53065 13.2259 1.33333 12.9643 1.33333 12.6667V10.2583L0.455848 9.96579C0.18362 9.87505 0 9.62029 0 9.33333V5.33333C0 5.04638 0.18362 4.79162 0.455848 4.70088L10.4558 1.36754C10.6591 1.29978 10.8826 1.33387 11.0565 1.45917ZM6.8625 10.6959C6.87265 10.699 6.8827 10.7024 6.89265 10.7059L10 11.7417V2.92495L1.33333 5.81384V8.85283L6.8625 10.6959ZM6 13.1162V11.8138L2.66667 10.7027V12.1638L6 13.1162ZM14 6.66666C13.6318 6.66666 13.3333 6.96514 13.3333 7.33333C13.3333 7.70152 13.6318 8 14 8H15.3333C15.7015 8 16 7.70152 16 7.33333C16 6.96514 15.7015 6.66666 15.3333 6.66666H14ZM14.908 3.32867C15.0946 3.64603 14.9887 4.05463 14.6713 4.24131L13.538 4.90798C13.2207 5.09466 12.8121 4.98872 12.6254 4.67137C12.4387 4.35401 12.5446 3.94541 12.862 3.75873L13.9953 3.09206C14.3127 2.90538 14.7213 3.01132 14.908 3.32867ZM13.538 9.75873C13.2207 9.57205 12.8121 9.67798 12.6254 9.99534C12.4387 10.3127 12.5446 10.7213 12.862 10.908L13.9953 11.5746C14.3127 11.7613 14.7213 11.6554 14.908 11.338C15.0946 11.0207 14.9887 10.6121 14.6713 10.4254L13.538 9.75873Z" fill="#202327"/>
</svg>

<svg xmlns="http://www.w3.org/2000/svg" viewBox="0 0 16 16" class="sageicon"><path fill-rule="evenodd" d="M11.056 1.46a.667.667 0 0 1 .277.54v10.667a.667.667 0 0 1-.877.632l-3.123-1.04V14a.667.667 0 0 1-.85.641l-4.666-1.333a.667.667 0 0 1-.484-.641v-2.409l-.877-.292A.667.667 0 0 1 0 9.333v-4c0-.287.184-.541.456-.632l10-3.333a.667.667 0 0 1 .6.091Zm-4.193 9.236a.76.76 0 0 1 .03.01L10 11.742V2.925L1.333 5.814v3.039l5.53 1.843ZM6 13.116v-1.302l-3.333-1.111v1.46L6 13.117Zm8-6.45A.667.667 0 1 0 14 8h1.333a.667.667 0 1 0 0-1.333H14Zm.908-3.337a.667.667 0 0 1-.237.912l-1.133.667a.667.667 0 1 1-.676-1.15l1.133-.666a.667.667 0 0 1 .913.237Zm-1.37 6.43a.667.667 0 1 0-.676 1.149l1.133.667a.667.667 0 1 0 .676-1.15l-1.133-.666Z"/></svg>
